X: 1283
T: Binda Polka
B: australian traditional tunes wiki
M:2/4
L:1/16
R: Polka
Q: 1/4=100
K:G
V:1 
|:"G"D4 "C"E2FE|"G"D2G2 B4|"D7"A3B c3B|A2G2 d2FE|"G"D4 "C"E2FE|"G"D2G2 B4|"D"7A3B c3F|"G"A2G2 G4|
d2B2 B2AB|"C"A2G2 E4|"G"D2G2 G2FG |"D7"B2A2 A4|"G"d2B2 B2AB|"C"A2G2 E4|"G"D4 "C"E2F2|"D7"A2G2 "G"G4:|
% abcbook-tune_id 6342d53a4d7702e04e4e4491


% abcbook-boost 0
% abcbook-tablature 
% abcbook-transpose 
% abcbook-lastupdated 1665324357328
% abcbook-soundfonts 
% abcbook-repeats 1
% NFF Book 2018

